app/assets/images/payment_icons/visa.svg

<svg xmlns="http://www.w3.org/2000/svg" width="38" height="24" fill="none" aria-labelledby="pi-visa" role="img" viewBox="0 0 38 24"><title id="pi-visa">Visa</title><path fill="#fff" d="M0 0h38v24H0z"/><path fill="#142688" d="M28.3 10.1H28c-.4 1-.7 1.5-1 3h1.9c-.3-1.5-.3-2.2-.6-3m2.9 5.9h-1.7c-.1 0-.1 0-.2-.1l-.2-.9-.1-.2h-2.4c-.1 0-.2 0-.2.2l-.3.9c0 .1-.1.1-.1.1h-2.1l.2-.5L27 8.7c0-.5.3-.7.8-.7h1.5c.1 0 .2 0 .2.2l1.4 6.5c.1.4.2.7.2 1.1.1.1.1.1.1.2m-13.4-.3.4-1.8c.1 0 .2.1.2.1.7.3 1.4.5 2.1.4.2 0 .5-.1.7-.2.5-.2.5-.7.1-1.1-.2-.2-.5-.3-.8-.5-.4-.2-.8-.4-1.1-.7-1.2-1-.8-2.4-.1-3.1.6-.4.9-.8 1.7-.8 1.2 0 2.5 0 3.1.2h.1c-.1.6-.2 1.1-.4 1.7-.5-.2-1-.4-1.5-.4-.3 0-.6 0-.9.1-.2 0-.3.1-.4.2-.2.2-.2.5 0 .7l.5.4c.4.2.8.4 1.1.6.5.3 1 .8 1.1 1.4.2.9-.1 1.7-.9 2.3-.5.4-.7.6-1.4.6-1.4 0-2.5.1-3.4-.2-.1.2-.1.2-.2.1m-3.5.3c.1-.7.1-.7.2-1 .5-2.2 1-4.5 1.4-6.7.1-.2.1-.3.3-.3H18c-.2 1.2-.4 2.1-.7 3.2-.3 1.5-.6 3-1 4.5 0 .2-.1.2-.3.2M5 8.2c0-.1.2-.2.3-.2h3.4c.5 0 .9.3 1 .8l.9 4.4c0 .1 0 .1.1.2 0-.1.1-.1.1-.1l2.1-5.1c-.1-.1 0-.2.1-.2h2.1c0 .1 0 .1-.1.2l-3.1 7.3c-.1.2-.1.3-.2.4s-.3 0-.5 0H9.7c-.1 0-.2 0-.2-.2L7.9 9.5c-.2-.2-.5-.5-.9-.6-.6-.3-1.7-.5-1.9-.5z"/></svg>

<svg xmlns="http://www.w3.org/2000/svg" width="38" height="24" viewBox="0 0 38 24" fill="none" aria-labelledby="pi-visa" role="img"><title id="pi-visa">Visa</title><rect width="38" height="24" fill="white"/><path d="M28.3 10.1H28C27.6 11.1 27.3 11.6 27 13.1H28.9C28.6 11.6 28.6 10.9 28.3 10.1V10.1ZM31.2 16H29.5C29.4 16 29.4 16 29.3 15.9L29.1 15L29 14.8H26.6C26.5 14.8 26.4 14.8 26.4 15L26.1 15.9C26.1 16 26 16 26 16H23.9L24.1 15.5L27 8.7C27 8.2 27.3 8 27.8 8H29.3C29.4 8 29.5 8 29.5 8.2L30.9 14.7C31 15.1 31.1 15.4 31.1 15.8C31.2 15.9 31.2 15.9 31.2 16V16ZM17.8 15.7L18.2 13.9C18.3 13.9 18.4 14 18.4 14C19.1 14.3 19.8 14.5 20.5 14.4C20.7 14.4 21 14.3 21.2 14.2C21.7 14 21.7 13.5 21.3 13.1C21.1 12.9 20.8 12.8 20.5 12.6C20.1 12.4 19.7 12.2 19.4 11.9C18.2 10.9 18.6 9.5 19.3 8.8C19.9 8.4 20.2 8 21 8C22.2 8 23.5 8 24.1 8.2H24.2C24.1 8.8 24 9.3 23.8 9.9C23.3 9.7 22.8 9.5 22.3 9.5C22 9.5 21.7 9.5 21.4 9.6C21.2 9.6 21.1 9.7 21 9.8C20.8 10 20.8 10.3 21 10.5L21.5 10.9C21.9 11.1 22.3 11.3 22.6 11.5C23.1 11.8 23.6 12.3 23.7 12.9C23.9 13.8 23.6 14.6 22.8 15.2C22.3 15.6 22.1 15.8 21.4 15.8C20 15.8 18.9 15.9 18 15.6C17.9 15.8 17.9 15.8 17.8 15.7V15.7ZM14.3 16C14.4 15.3 14.4 15.3 14.5 15C15 12.8 15.5 10.5 15.9 8.3C16 8.1 16 8 16.2 8H18C17.8 9.2 17.6 10.1 17.3 11.2C17 12.7 16.7 14.2 16.3 15.7C16.3 15.9 16.2 15.9 16 15.9M5 8.2C5 8.1 5.2 8 5.3 8H8.7C9.2 8 9.6 8.3 9.7 8.8L10.6 13.2C10.6 13.3 10.6 13.3 10.7 13.4C10.7 13.3 10.8 13.3 10.8 13.3L12.9 8.2C12.8 8.1 12.9 8 13 8H15.1C15.1 8.1 15.1 8.1 15 8.2L11.9 15.5C11.8 15.7 11.8 15.8 11.7 15.9C11.6 16 11.4 15.9 11.2 15.9H9.7C9.6 15.9 9.5 15.9 9.5 15.7L7.9 9.5C7.7 9.3 7.4 9 7 8.9C6.4 8.6 5.3 8.4 5.1 8.4L5 8.2Z" fill="#142688"/></svg>
